X: 19
T:William & Nancy (fragments), Bledington
M:6/8
L:1/8
A:Bledington
P:ABC
K:G
P:A
"_Hathaway A"|:D|\
GAG  BGd|efg dBG|ABc BAG|E2F G2:|
P:B
"_Bond B"
g2g  fed|efg fed|g2g fed|efe d3 |
G>GG GBd|e2e dBG|A2A B2G|EEF G2 ||
P:C
K:F
"_Benfield B"
c2c  A2c|fed cBA|d2c d2e|fed c2B|
A2A  ABc|d2d cAF|G2G AGF|D2E F3 ||

